!!!!SEGMENT: pl-sa--197-a-vi-1--007_anonim--requiem-es-benedictus.krn
!!!cenid: 17xx:1678
!!!COM: Anonim
!!!COM-rismid: pe30004985
!!!CDT:
!!!CNT:
!!!OPR: Requiem Es
!!!OTL: Benedictus
!!!OMV: 007
!!!PDT:
!!!AGN: Sacred; Requiem
!!!SMS-siglum: PL-SA
!!!SMS-shelfmark: 197/A VI 1
!!!SMS-shelfwork: 001-007 M
!!!SMS-variant:
!!!SMS-altvar:
!!!NIFC-rismid: 1001070179
!!!URL-scan: https://bc.bdsandomierz.pl/dlibra/publication/1533/edition/1501/content
!!!ONB-nifc: UWAGA: części Requiem: 1. Requiem, 2. Kirie, 3. Dies irae, 4. Domine Jesu Christe, 5. Sanctus, 6. Osanna, 7. Benedictus, 8. Agnus Dei, 9. Lux aeterna
!!!key: g
**kern	**kern	**kern	**text
*part3	*part2	*part1	*part1
*staff3	*staff2	*staff1	*staff1
*I"Baſſo	*I"Alto	*I"Canto:.	*
*I'B	*I'A	*I'S	*
*Ibass	*Ialto	*Isoprn	*
*ICvox	*ICvox	*ICvox	*
*clefF4	*clefC3	*clefC1	*
*k[b-e-]	*k[b-e-]	*k[b-e-]	*
*g:	*g:	*g:	*
*M3/4	*M3/4	*M3/4	*
=1	=1	=1	=1
!!LO:TX:t=P:problem:all\right:global
!	!	!LO:TX:t=P:problem:4,8\right:global	!
!LO:TX:a:t=Benedictus Tacet\nO Sanna ut ſupra	!LO:TX:a:t=Benedictus Tacet Tenor\nO Sanna ut ſupra	!LO:TX:t=P:problem:znaki: po e- dodany an	!
!	!	!LO:TX:b:B:t=adagio	!
2.ryy	2.ryy	4r	.
.	.	4dd\	Be-
.	.	4ee-\	-ne-
=2	=2	=2	=2
2.ryy	2.ryy	4ee-\	-di-
.	.	8a\L	-ctus
.	.	8cc\J	.
.	.	4dd\	.
=3	=3	=3	=3
2.ryy	2.ryy	4cc\	qvi
.	.	8g\L	ve-
.	.	8a\	.
.	.	8b-\	.
.	.	8cc\J	.
=4	=4	=4	=4
2.ryy	2.ryy	4dd\	-nit.
.	.	4r	.
.	.	4r	.
!	!	!LO:PB:g=original	!
=5	=5	=5	=5
2.ryy	2.ryy	4dd\	qvi
.	.	(8cc\L	ve-
.	.	8b-\J)	.
.	.	(8a\L	-nit
.	.	8g\J)	.
=6	=6	=6	=6
2.ryy	2.ryy	4.f#X/	in
.	.	8f#/	no-
.	.	4g/	-mi-
=7	=7	=7	=7
2.ryy	2.ryy	4a\	-ne
.	.	4b-\	Do-
!	!	!LO:N:vis=8.	!
.	.	(8a\L	-mi-
.	.	8g\J)	.
=8	=8	=8	=8
2.ryy	2.ryy	4g/	-ne
.	.	4r	.
.	.	4r	.
=9	=9	=9	=9
!	!	!LO:N:vis=00	!
2.ryy	2.ryy	0.r	.
=10	=10	=10	=10
2.ryy	2.ryy	.	.
=11	=11	=11	=11
2.ryy	2.ryy	.	.
=12	=12	=12	=12
2.ryy	2.ryy	.	.
=13	=13	=13	=13
!	!	!LO:N:vis=0	!
2.ryy	2.ryy	1.r	.
=14	=14	=14	=14
2.ryy	2.ryy	.	.
!	!	!LO:TX:a:t=o Sanna ut\nſupra	!
=:|!	=:|!	=:|!	=:|!
*-	*-	*-	*-
!!!system-decoration: [(s1,s2,s3)]
!!!ENC: Katarzyna Serwa
!!!END: 2022-03-31
!!!AIN: 1 alto 1 bass 1 soprn
!!!ENC: Katarzyna Serwa
!!!END: 2020-12-27
